X: 17245
T: Herbert Smith's
R: polka
M: 2/4
K: Gmajor
d/c/|Bd Bd|B/B/B/B/ Bd|B>d Bd|c/c/c/c/ ce|
ce ce|af- fg|a>g f/e/f/e/|d2- de/d/|
B/B/d Bd|BB/B/ Bd|B/c/d Bd|cc/c/ ce|
c/c/e c/d/e/g/|a/a/a/a/ a2|a>g fa|g2- g||
K: D Major
A|AB/c/ de|fg a2|a>e a>a|f/g/f/e/ d2|
AB/c/ d/e/f/g/|f>g a2|a2 e2|a/b/a/g/ f/e/d/B/|
AB/c/ de|fg a2|a2 e2|f>e dc/B/|
A2 B/c/d/e/|fg a2|a2 ea/g/|f/g/f/e d||
K: G Major
e/f/|gd ed|e/e/e/e/ ed|e>d ed|c2- cB|
a2 a>g|f/g/f/e/ fe/f/|ed dc|B2 B/c/d/f/|
g>d e/f/e/d/|B2- Bd|e>d ed|c2- cd|
aa/a/ ae/f/|f/g/f/e/ g>e|d/c/d/f ef|g2- g||

